Obsidian/actions/16s/document-save-all.svg

<svg height="16" viewBox="0 0 16 16" width="16" xmlns="http://www.w3.org/2000/svg"><path d="m5.9902344 1.0195312.0097656 6h-2.3417969l3.3398438 4.8613278v-1.9863278c0-1.0105999.90116-1.84375 1.875-1.84375h2.7832031l.716797-1.03125h-2.3750001l-.0097657-6zm2.8828125 8.03125c-.4924 0-.875.35565-.875.84375v5.2187498c0 .488.3826.84375.875.84375h6.2500001c.492 0 .875-.35575.875-.84375v-5.2187498c0-.4880999-.383-.8437499-.875-.84375zm1.1269531.9492188h4v5h-1v-2h-2v2h-1zm1 1v1h2v-1zm-10 3.03125v1.96875h6.2578125c-.15641-.26492-.2558594-.564459-.2558594-.886719v-1.082031z" fill="#bebebe"/></svg>

<svg xmlns="http://www.w3.org/2000/svg" width="16" height="16" viewBox="0 0 16 16">
 <defs>
  <style id="current-color-scheme" type="text/css">
   .ColorScheme-Text { color:#bebebe; } .ColorScheme-Highlight { color:#4285f4; }
  </style>
 </defs>
 <path style="fill:currentColor" class="ColorScheme-Text" d="M 5.9902344 1.0195312 L 6 7.0195312 L 3.6582031 7.0195312 L 6.9980469 11.880859 L 6.9980469 9.8945312 C 6.9980469 8.8839313 7.8992069 8.0507812 8.8730469 8.0507812 L 11.65625 8.0507812 L 12.373047 7.0195312 L 9.9980469 7.0195312 L 9.9882812 1.0195312 L 5.9902344 1.0195312 z M 8.8730469 9.0507812 C 8.3806469 9.0507812 7.9980469 9.4064312 7.9980469 9.8945312 L 7.9980469 15.113281 C 7.9980469 15.601281 8.3806469 15.957031 8.8730469 15.957031 L 15.123047 15.957031 C 15.615047 15.957031 15.998047 15.601281 15.998047 15.113281 L 15.998047 9.8945312 C 15.998047 9.4064313 15.615047 9.0507813 15.123047 9.0507812 L 8.8730469 9.0507812 z M 10 10 L 14 10 L 14 15 L 13 15 L 13 13 L 11 13 L 11 15 L 10 15 L 10 10 z M 11 11 L 11 12 L 13 12 L 13 11 L 11 11 z M 1 14.03125 L 1 16 L 7.2578125 16 C 7.1014025 15.73508 7.0019531 15.435541 7.0019531 15.113281 L 7.0019531 14.03125 L 1 14.03125 z"/>
</svg>
